assets/icons/librescoot-propulsion-battery-fault.svg

<svg xmlns="http://www.w3.org/2000/svg" width="144" height="144" fill="none" viewBox="0 0 144 144"><g clip-path="url(#a)"><mask id="b" width="144" height="144" x="0" y="0" maskUnits="userSpaceOnUse" style="mask-type:alpha"><path fill="#d9d9d9" d="M0 0h144v144H0z"/></mask><g fill="#ffea00" mask="url(#b)"><path d="M48.6502 50.8618v6.0201H17.02v43.7451h84.092V56.8819H69.4822v-6.0201h37.6498v55.7852H11V50.8618z"/><path d="M120.352 60.7847v55.5383H24.4676v-6.02h89.8644V60.7847z"/><path d="M133.57 70.461V126H37.686v-6.02h89.864V70.461zm-91.344 3.466v4.515H23.401v-4.515zm51.574 0v4.515H75.311v-4.515z"/><path d="M86.817 66.937v18.489h-4.515V66.937zM58.35 17c-1.098 0-2.15.461-2.926 1.282s-1.212 1.934-1.212 3.095v61.981c0 1.161.436 2.274 1.212 3.095s1.829 1.282 2.927 1.282 2.15-.461 2.927-1.282 1.212-1.934 1.212-3.095V21.377c0-1.161-.436-2.274-1.212-3.095S59.448 17 58.35 17M40.592 43.038h-14.71v10.834h14.71zm51.664 0h-14.71v10.834h14.71zM62.489 94.132c0 2.286-1.853 4.139-4.139 4.139s-4.139-1.853-4.139-4.139 1.853-4.139 4.139-4.139 4.139 1.853 4.139 4.139"/></g></g><defs><clipPath id="a"><path fill="#fff" d="M0 0h144v144H0z"/></clipPath></defs></svg>

<svg width="144" height="144" viewBox="0 0 144 144" fill="none" xmlns="http://www.w3.org/2000/svg">
  <g clip-path="url(#clip0_709_232)">
    <mask id="mask0_709_232" style="mask-type:alpha" maskUnits="userSpaceOnUse" x="0" y="0"
      width="144" height="144">
      <rect width="144" height="144" fill="#D9D9D9" />
    </mask>
    <g mask="url(#mask0_709_232)">
      <path
        d="M48.6502 50.8618V56.8819H17.02V100.627H101.112V56.8819H69.4822V50.8618H107.132V106.647H11V50.8618H48.6502Z"
        fill="#FFEA00" />
      <path d="M120.352 60.7847V116.323H24.4676V110.303H114.332V60.7847H120.352Z" fill="#FFEA00" />
      <path d="M133.57 70.4614V126H37.6861V119.98H127.55V70.4614H133.57Z" fill="#FFEA00" />
      <path d="M42.2264 73.9268V78.4418H23.4005V73.9268H42.2264Z" fill="#FFEA00" />
      <path d="M93.7998 73.9272V78.4423H75.3113V73.9272H93.7998Z" fill="#FFEA00" />
      <path d="M86.8171 66.937V85.4256H82.3021V66.937H86.8171Z" fill="#FFEA00" />
      <path
        d="M58.3498 17C57.2522 17 56.1994 17.4612 55.4233 18.282C54.6471 19.1029 54.2111 20.2162 54.2111 21.3771V83.3584C54.2111 84.5192 54.6471 85.6326 55.4233 86.4534C56.1994 87.2743 57.2522 87.7354 58.3498 87.7354C59.4475 87.7354 60.5002 87.2743 61.2764 86.4534C62.0526 85.6326 62.4886 84.5192 62.4886 83.3584V21.3771C62.4886 20.2162 62.0526 19.1029 61.2764 18.282C60.5002 17.4612 59.4475 17 58.3498 17Z"
        fill="#FFEA00" />
      <path d="M40.5923 43.0381H25.8823V53.8719H40.5923V43.0381Z" fill="#FFEA00" />
      <path d="M92.2562 43.0381H77.5462V53.8719H92.2562V43.0381Z" fill="#FFEA00" />
      <path
        d="M62.4886 94.1319C62.4886 96.4177 60.6356 98.2707 58.3498 98.2707C56.0641 98.2707 54.2111 96.4177 54.2111 94.1319C54.2111 91.8462 56.0641 89.9932 58.3498 89.9932C60.6356 89.9932 62.4886 91.8462 62.4886 94.1319Z"
        fill="#FFEA00" />
    </g>
  </g>
  <defs>
    <clipPath id="clip0_709_232">
      <rect width="144" height="144" fill="white" />
    </clipPath>
  </defs>
</svg>
